dist/img/svg/i-company-2.svg

<svg width="24" height="24" viewBox="0 0 24 24" fill="none" xmlns="http://www.w3.org/2000/svg">
    <path d="M12 2C6.5 2 2 6.5 2 12C2 17.5 6.5 22 12 22C17.5 22 22 17.5 22 12C22 6.5 17.5 2 12 2ZM12 4C16.0606 4 19.4326 7.06864 19.9297 11H15.8555C15.4056 9.28421 13.8503 8 12 8C10.1497 8 8.59441 9.28421 8.14453 11H4.07031C4.56745 7.06864 7.93937 4 12 4ZM12 10C13.1164 10 14 10.8836 14 12C14 13.1164 13.1164 14 12 14C10.8836 14 10 13.1164 10 12C10 10.8836 10.8836 10 12 10ZM4.07031 13H8.14453C8.51004 14.394 9.60598 15.49 11 15.8555V19.9297C7.39721 19.4741 4.5259 16.6028 4.07031 13ZM15.8555 13H19.9297C19.4741 16.6028 16.6028 19.4741 13 19.9297V15.8555C14.394 15.49 15.49 14.394 15.8555 13Z" fill="white"/>
</svg>

<svg width="24" height="24" viewBox="0 0 24 24" fill="none" xmlns="http://www.w3.org/2000/svg"><path d="M12 2C6.5 2 2 6.5 2 12s4.5 10 10 10 10-4.5 10-10S17.5 2 12 2zm0 2c4.06 0 7.433 3.069 7.93 7h-4.075C15.405 9.284 13.85 8 12 8s-3.406 1.284-3.855 3H4.07C4.567 7.069 7.94 4 12 4zm0 6c1.116 0 2 .884 2 2s-.884 2-2 2-2-.884-2-2 .884-2 2-2zm-7.93 3h4.075A4.01 4.01 0 0011 15.855v4.075A8.027 8.027 0 014.07 13zm11.785 0h4.075A8.027 8.027 0 0113 19.93v-4.075A4.01 4.01 0 0015.855 13z" fill="#fff"/></svg>
